X:69
T:Inverary Castle
R:Strathspey
S:MS from 1850s
N:No.0
O:Scottish
Z:Nigel Gatherer
M:4/4
L:1/8
K:E minor
B,>E E2 B,>EG<E|B,<EE<F G<A B2|B,>E E2 B,>EG<E|D>B,G,>A, B,>DD>^C|
B,>E E2 B,>EG<E|B,<EE<F G<A B2|B,>E E2 B,>EG<E|D>B,G,>A, B,>D D|]
B/A/|G>AB<g e>BB>A|G>AB>d Be e2|G>AB<e d<eB<e|d>AF<D F<A A2|
G>A B/e/B B/g/B B/e/B|G>AB>e g/f/e/^d/ e>f|g>BA>G F>ED>C|\
B,>G,D>G, B,>D D2|]

